X:401
T:Cliffs of Moher, The
R:jig
H:I think this is the Paddy Canny version.
H:See also #79, #196, #224
Z:hn-jig-401
M:6/8
L:1/8
K:G
~g3 agf | dgg fdc | _BAG AG=F | DGG A=Bc |
dgg agf | dgg fdc | _BAG AG=F | DG=F GA/=B/c :|
|: d3 cAG | Add cAG | =FGA cAG | =FGA ~c3 |
[1 d3 cAG | Add cAG | =FGA cAF | DG=F GA/=B/c :|
[2 Add edd | cdd Add | GBd AFA | GBd ~f3 ||

